X: 1
T: String Quartet in G major opus 1 no 4 mvt 5
C: Franz Joseph Haydn
%%abc-version 2.0
%%abcx-abcm2ps-target-version 5.9.1 (29 Sep 2008)
%%abc-creator hum2abc beta
%%abcx-conversion-date 2021/02/14 14:38:13
%%abc-copyright Copyright (c) 1994, 2000 Center for Computer Assisted Research in the Humanities
%%abc-edited-by Frances Bennion
%%abcx-initial-encoding-date 1997/04/15
%%gracespace 0 6 6
%%humdrum-veritas 1593675180
%%humdrum-veritas-data 4185134543
%%linebreak <none>
%%barnumbers 0
L: 1/8
M: 2/4
N: Derived from op01n4-05.krn
Q: "Presto"
%%staves [1 2 3 4]
V: 1
V: 2
V: 3 clef=alto
V: 4 clef=bass
K: G
[V:1][B2g2G,2D2] G/F/G/A/ [I:setbarnb2] |
[V:2][G,2g2B2D2] z2 |
[V:3]G2 z2 |
[V:4]G,2 z2 |
[V:1]GG GG |
[V:2]zD ED |
[V:3]zB cB |
[V:4]zB, CB, |
[V:1]cB ed |
[V:2]FG cB |
[V:3]AG z2 |
[V:4]A,G, z2 |
[V:1]cB z2 |
[V:2]AG z2 |
[V:3]DG z2 |
[V:4]D,G, z2 |
[V:1][G,2g2D2B2] G/F/G/A/ |
[V:2][G,2B2D2] z2 |
[V:3]G2 z2 |
[V:4]G,2 z2 |
[V:1]GG GG |
[V:2]zD ED |
[V:3]zB cB |
[V:4]zB, CB, |
[V:1]cB ed |
[V:2]FG cB |
[V:3]AG z2 |
[V:4]A,G, z2 |
[V:1]fg zb/^c/ |
[V:2]AG z2 |
[V:3]cB z2 |
[V:4]D,G, z2 |
[V:1]^c2 de/G/ |
[V:2]zE Fz |
[V:3]zA, A,z |
[V:4]zG, F,z |
[V:1]G2 Fb/^c/ |
[V:2]zE Dz |
[V:3]zA, A,z |
[V:4]z^C, D,z |
[V:1]^c2 de/G/ |
[V:2]zE Fz |
[V:3]zA, A,z |
[V:4]zG, F,z |
[V:1]G2 Fd |
[V:2]zE DA |
[V:3]zA, A,F |
[V:4]z^C, D,F, |
[V:1]d/f/e e/g/f |
[V:2]Bz ^cz |
[V:3]Gz Az |
[V:4]G,z A,z |
[V:1]f/a/g g/b/e/g/ |
[V:2]dz ez |
[V:3]Bz ^cz |
[V:4]B,z ^Cz |
[V:1]f(3d'/^c'/b/ aa |
[V:2]d2 z2 |
[V:3]A2 z2 |
[V:4]D2 z2 |
[V:1]ae'/^c'/ a/g/e/g/ |
[V:2][g2A2] z2 |
[V:3]A2 z2 |
[V:4]^C2 z2 |
[V:1]f(3d'/^c'/b/ aa |
[V:2][A2D2f2] z2 |
[V:3]A2 z2 |
[V:4]D2 z2 |
[V:1]ae'/^c'/ a/g/e/g/ |
[V:2][g2A2] z2 |
[V:3]A2 z2 |
[V:4]^C2 z2 |
[V:1]f/a/d/e/ e2 |
[V:2]zd2 ^c |
[V:3]dF GA |
[V:4]DF, G,A, |
[V:1]dF GA |
[V:2]dF GA |
[V:3]DF GA |
[V:4]D,F, G,A, |
[V:1]B/A/B/^c/ dF |
[V:2]B/A/B/^c/ dF |
[V:3]B/A/B/^c/ dF |
[V:4]B,/A,/B,/^C/ DF, |
[V:1]G/F/G/A/ BE |
[V:2]G/F/G/A/ BE |
[V:3]G/F/G/A/ BE |
[V:4]G,/F,/G,/A,/ B,E, |
[V:1]FE/D/ AA |
[V:2]FE/D/ AA |
[V:3]FE/D/ AA |
[V:4]F,E,/D,/ A,A, |
[V:1]D2 z2 |
[V:2]D2 z2 |
[V:3]D2 z2 |
[V:4]D,2 z2 |
[V:1]d4- |
[V:2]D2 A/G/A/B/ |
[V:3]D2 F/E/F/G/ |
[V:4]D,2 z2 |
[V:1]d4- |
[V:2]cc cc |
[V:3]AA AA |
[V:4]z4 |
[V:1]d4- |
[V:2]^AB zc |
[V:3]FG zA |
[V:4]D,2 z2 |
[V:1]d4- |
[V:2]^AB z2 |
[V:3]FG z2 |
[V:4]D,2 z2 |
[V:1]d4- |
[V:2]D2 B/A/B/c/ |
[V:3]D2 G/F/G/A/ |
[V:4]D,2 z2 |
[V:1]d4- |
[V:2]dd dd |
[V:3]BB BB |
[V:4]z4 |
[V:1]d4- |
[V:2]Bc zd |
[V:3]^GA zB |
[V:4]D,2 z2 |
[V:1]d2 d/e//f//g//a//b//c'// |
[V:2]Bc z2 |
[V:3]^GA z2 |
[V:4]D,2 z2 |
[V:1]d'4- |
[V:2]D2 A/G/A/B/ |
[V:3]D2 F/E/F/G/ |
[V:4]D,2 z2 |
[V:1]d'4 |
[V:2]cc cA |
[V:3]AA AF |
[V:4]D,2 z2 |
[V:1]d'/c'/b/c'/ bz |
[V:2]BB BB |
[V:3]GG GG |
[V:4]G,G, G,G, |
[V:1]b/a/g/a/ gz |
[V:2]BB BB |
[V:3]GG GG |
[V:4]G,G, G,G, |
[V:1]g/=f/e/f/ fz |
[V:2]BB BB |
[V:3]GG GG |
[V:4]G,G, G,G, |
[V:1]G,2 d'2 |
[V:2]BB BB |
[V:3]GG GG |
[V:4]G,G, G,G, |
[V:1]d'/b/=f'/d'/ f'/d'/b/=f/ |
[V:2]B2 zB |
[V:3]G2 zG |
[V:4]G,2 zG, |
[V:1]ec' DB |
[V:2]cC DB |
[V:3]cE =FG |
[V:4]CE, =F,G, |
[V:1]C2 zc'/^g/ |
[V:2]C2 z2 |
[V:3]CG, C,2 |
[V:4]C,G,, C,,2 |
[V:1]^ga zc'/e/ |
[V:2]zE ^GA |
[V:3]Bc zc |
[V:4]zC B,A, |
[V:1]ed zb/f/ |
[V:2]zD CB, |
[V:3]cB z2 |
[V:4]zB, A,G, |
[V:1]fg zb/d/ |
[V:2]zD FG |
[V:3]AB zB |
[V:4]zB, A,G, |
[V:1]dc za/c/ |
[V:2]zC B,A, |
[V:3]BA zD |
[V:4]zA, G,F, |
[V:1]B>d c/B/A/G/ |
[V:2]G,>d c/B/A/G/ |
[V:3]D>d c/B/A/G/ |
[V:4]G,>D C/B,/A,/G,/ |
[V:1]D2 z2 |
[V:2]D2 z2 |
[V:3]D>E D/C/B,/A,/ |
[V:4]D,>E, D,/C,/B,,/A,,/ |
[V:1][G,2D2g2B2] G/F/G/A/ |
[V:2][G,2B2D2] z2 |
[V:3]G,2 z2 |
[V:4]G,,2 z2 |
[V:1]GG GG |
[V:2]zD ED |
[V:3]zB cB |
[V:4]zB, CB, |
[V:1]cB ed |
[V:2]FG cB |
[V:3]AG z2 |
[V:4]A,G, z2 |
[V:1]cB z2 |
[V:2]AG z2 |
[V:3]DG z2 |
[V:4]D,G, z2 |
[V:1][g2G,2D2B2] G/F/G/A/ |
[V:2][G,2B2D2] z2 |
[V:3]G2 z2 |
[V:4]G,2 z2 |
[V:1]GG GG |
[V:2]zD ED |
[V:3]zB cB |
[V:4]zB, CB, |
[V:1]cB ed |
[V:2]FG cB |
[V:3]AG z2 |
[V:4]A,G, z2 |
[V:1]fg ze/F/ |
[V:2]AG z2 |
[V:3]cB z2 |
[V:4]D,G, z2 |
[V:1]F2 GA/C/ |
[V:2]zA, B,z |
[V:3]zD Dz |
[V:4]zC B,z |
[V:1]C2 B,e/F/ |
[V:2]zA, G,z |
[V:3]zD G,z |
[V:4]zD, G,z |
[V:1]F2 GA/C/ |
[V:2]zA, B,z |
[V:3]zD Dz |
[V:4]zC B,z |
[V:1]C2 B,G |
[V:2]zA, G,D |
[V:3]zD G,B, |
[V:4]zD, G,B,, |
[V:1]G/B<A c/B |
[V:2]Ez Fz |
[V:3]Cz Dz |
[V:4]C,z D,z |
[V:1]B/d<c e/A/c/ |
[V:2]Gz Az |
[V:3]Ez Fz |
[V:4]E,z F,z |
[V:1]B(3g/f/e/ dd |
[V:2]G2 z2 |
[V:3]D2 z2 |
[V:4]G,2 z2 |
[V:1]da/f/ d/c/A/c/ |
[V:2]c2 z2 |
[V:3]D2 z2 |
[V:4]F,2 z2 |
[V:1]B(3g/f/e/ dd |
[V:2][G,2D2B2] z2 |
[V:3]D2 z2 |
[V:4]G,2 z2 |
[V:1]da/f/ d/c/A/c/ |
[V:2]D2 z2 |
[V:3]D2 z2 |
[V:4]F,2 z2 |
[V:1]B/d/G/B/ A2 |
[V:2]zG2 F |
[V:3]GB, CD |
[V:4]G,B,, C,D, |
[V:1]GB, CD |
[V:2]GB, CD |
[V:3]GB, CD |
[V:4]G,B,, C,D, |
[V:1]E/D/E/F/ GB, |
[V:2]E/D/E/F/ GB, |
[V:3]E/D/E/F/ GB, |
[V:4]E,/D,/E,/F,/ G,B,, |
[V:1]C/B,/C/D/ EA, |
[V:2]C/B,/C/D/ EA, |
[V:3]C/B,/C/D/ EA, |
[V:4]C,/B,,/C,/D,/ E,A,, |
[V:1]B,A,/G,/ DD |
[V:2]B,A,/G,/ DD |
[V:3]B,A,/G,/ DD |
[V:4]B,,A,,/G,,/ D,D, |
[V:1]G,2 z2 |
[V:2]G,2 z2 |
[V:3]G,2 z2 |
[V:4]G,,2 z2 |
[V:1]zb z^d |
[V:2]Ez Fz |
[V:3]z4 |
[V:4]z4 |
[V:1]ze zc |
[V:2]Gz Ez |
[V:3]z4 |
[V:4]z4 |
[V:1]zc BA |
[V:2]^D3 D |
[V:3]z4 |
[V:4]z4 |
[V:1]G2 F2 |
[V:2]E/F/G/A/ BA |
[V:3]z4 |
[V:4]z4 |
[V:1]ze zg |
[V:2]Gz Ez |
[V:3]z4 |
[V:4]z4 |
[V:1]zf za |
[V:2]^Dz B,z |
[V:3]z4 |
[V:4]z4 |
[V:1]ge f^d |
[V:2]EG AB |
[V:3]z4 |
[V:4]z4 |
[V:1]e2 z2 |
[V:2]EG B/A/G/F/ |
[V:3]z4 |
[V:4]z4 |
[V:1][G,2g2D2B2] dz |
[V:2]G2 B,G |
[V:3]G2 G2 |
[V:4]G,2 B,,G, |
[V:1]ez c'/a/f |
[V:2]CA Dd |
[V:3]G2 FA |
[V:4]C,A, D,D |
[V:1][g2B2D2] dz |
[V:2]BG B,G |
[V:3]G2 G2 |
[V:4]B,G, B,,G, |
[V:1]ez c'/a/f |
[V:2]CA Dd |
[V:3]G2 FA |
[V:4]C,A, D,D |
[V:1]gB cd |
[V:2]BB cd |
[V:3]GB, CD |
[V:4]B,B,, C,D, |
[V:1]G2 z2 |
[V:2]G2 z2 |
[V:3]G,2 z2 |
[V:4]G,,B, D/C/B,/A,/ |
[V:1]z2 ^g2 |
[V:2]zd zD |
[V:3]zB zB, |
[V:4]^G,2 E,2 |
[V:1]a/^g/a/b/ c'z |
[V:2]CA, z2 |
[V:3]A,A z2 |
[V:4]A,2 zA,/G,/ |
[V:1]z2 f2 |
[V:2]zc zC |
[V:3]zA zA, |
[V:4]F,2 D,2 |
[V:1]g/f/g/a/ bb- |
[V:2]B,G, zB |
[V:3]G,G G,2 |
[V:4]G,2 G,,2 |
[V:1]ba/g/ fe |
[V:2]c>B AG |
[V:3]A,2 ^A,2 |
[V:4]A,,2 ^A,,2 |
[V:1]^dB z2 |
[V:2]FB, z2 |
[V:3]B,B B/A/G/F/ |
[V:4]B,,B, B,/A,/G,/F,/ |
[V:1]zb z^d |
[V:2]Ez Fz |
[V:3]E2 z2 |
[V:4]E,2 z2 |
[V:1]ze zc |
[V:2]Gz Ez |
[V:3]z4 |
[V:4]z4 |
[V:1]zc BA |
[V:2]^D3 D |
[V:3]z4 |
[V:4]z4 |
[V:1]G2 F2 |
[V:2]E/F/G/A/ BA |
[V:3]z4 |
[V:4]z4 |
[V:1]ze zg |
[V:2]Gz Ez |
[V:3]z4 |
[V:4]z4 |
[V:1]zf za |
[V:2]^Dz B,z |
[V:3]z4 |
[V:4]z4 |
[V:1]ge f^d |
[V:2]EG AB |
[V:3]z4 |
[V:4]z4 |
[V:1]e2 z2 |]
[V:2]EG B/A/G/F/ |]
[V:3]z4 |]
[V:4]z4 |]

